X: 676
T: Offertorium Nro 21
C: Anonim
L: 1/4
M: 3/4
N: Derived from pl-kk--kk-i-382--080_anonim--offertorium-nro-21.krn
%%staves [1 2 3 4]
V: 1
V: 2 clef=alto
V: 3 clef=tenor
V: 4 clef=bass
K: C
[V:1] c2e | 
[V:2] E2G | 
[V:3] z12 | 
[V:4] C,2C | 
[V:1] edc | 
[V:2] GFE | 
[V:3]  | 
[V:4] zzC, | 
[V:1] B2d | 
[V:2] D2F | 
[V:3]  | 
[V:4] G,2G,, | 
[V:1] d/> c/c2 | 
[V:2] F/> E/E2 | 
[V:3]  | 
[V:4] C,E,C, | 
[V:1] AAA | 
[V:2] FFF | 
[V:3] CCC | 
[V:4] F,A,F, | 
[V:1] A/G/G2 | 
[V:2] F/E/E2 | 
[V:3] CC2 | 
[V:4] C,C,2 | 
[V:1] Gff | 
[V:2] DGG | 
[V:3] G,B,D | 
[V:4] B,,G,,B,, | 
[V:1] f/e/e2 | 
[V:2] GG2 | 
[V:3] D/C/C2 | 
[V:4] C,C,2 | 
[V:1] d2d | 
[V:2] A2A | 
[V:3] C2C | 
[V:4] F,2F, | 
[V:1] dec | 
[V:2] AAA | 
[V:3] CA,D | 
[V:4] ^F,F,F, | 
[V:1] B/> c/dz/ d/ | 
[V:2] G/> A/Bz/ G/ | 
[V:3] D/> G,/G,z/ B,/ | 
[V:4] G,/> G,/G,z/ G,/ | 
[V:1] ded | 
[V:2] EEE | 
[V:3] B,B,B, | 
[V:4] ^G,G,G, | 
[V:1] d/^c<cc/ | 
[V:2] EE3/A/ | 
[V:3] A,A,E | 
[V:4] A,A,=G, | 
[V:1] =cdc | 
[V:2] AAA | 
[V:3] DDD | 
[V:4] ^F,F,F, | 
[V:1] c/B/Bz/ B/ | 
[V:2] A/G/Gz/ G/ | 
[V:3] DDz/ D/ | 
[V:4] G,G,z/ =F,/ | 
[V:1] c2d | 
[V:2] G2G | 
[V:3] C2G, | 
[V:4] E,C,3/B,,/ | 
[V:1] ee^f | 
[V:2] GAA | 
[V:3] CA,D | 
[V:4] C,C,C | 
[V:1] gd2 | 
[V:2] GG2 | 
[V:3] DB,2 | 
[V:4] B,G,2 | 
[V:1] d/c/BA | 
[V:2] AG^F | 
[V:3] EDD | 
[V:4] CDC | 
[V:1] d2^d | 
[V:2] G2G | 
[V:3] DB,G, | 
[V:4] B,G,B, | 
[V:1] e^fg | 
[V:2] GcB | 
[V:3] C2D | 
[V:4] CA,B, | 
[V:1] d/c/BA | 
[V:2] AG^F | 
[V:3] ED3/C/ | 
[V:4] CDD, | 
[V:1] Gd2 | 
[V:2] GB2 | 
[V:3] B,zz | 
[V:4] G,G,2 | 
[V:1] edc | 
[V:2] cBA | 
[V:3] z12 | 
[V:4] G,,G,z | 
[V:1] dBg/^f/ | 
[V:2] BGB | 
[V:3]  | 
[V:4] G,G,G, | 
[V:1] ee^f | 
[V:2] ccA | 
[V:3]  | 
[V:4] G,G,G, | 
[V:1] gdz/ d/ | 
[V:2] BBz/ B/ | 
[V:3]  | 
[V:4] G,,G,G, | 
[V:1] edc | 
[V:2] cBA | 
[V:3] z3 | 
[V:4] G,,G,z | 
[V:1] dB/c/ d/e/ | 
[V:2] BGG | 
[V:3] zzB,/C/ | 
[V:4] zzG, | 
[V:1] =ffe | 
[V:2] GGG | 
[V:3] DDC | 
[V:4] B,,B,C | 
[V:1] edz/ B/ | 
[V:2] GGz/ =F/ | 
[V:3] CB,z | 
[V:4] G,G,,z | 
[V:1] c2e | 
[V:2] E2G | 
[V:3] z6 | 
[V:4] C,C,C | 
[V:1] edc | 
[V:2] GFE | 
[V:3]  | 
[V:4] CC,C, | 
[V:1] BB/c/d | 
[V:2] DD/E/F | 
[V:3] z3 | 
[V:4] G,G,G,, | 
[V:1] d/c/cz/ e/ | 
[V:2] F/E/Ez | 
[V:3] zzC | 
[V:4] C,E,G, | 
[V:1] e2g | 
[V:2] z12 | 
[V:3] C2E | 
[V:4] C,C,C | 
[V:1] gfe | 
[V:2]  | 
[V:3] EDC | 
[V:4] CC,C, | 
[V:1] dd/e/f | 
[V:2]  | 
[V:3] B,B,/C/D | 
[V:4] G,G,G,, | 
[V:1] f/e/e2 | 
[V:2]  | 
[V:3] D/C/Cz | 
[V:4] C,E,C, | 
[V:1] f2A | 
[V:2] A2A/F/ | 
[V:3] C2C | 
[V:4] F,2F, | 
[V:1] A/G/G2 | 
[V:2] F/E/E2 | 
[V:3] CC2 | 
[V:4] C,2C, | 
[V:1] G2f | 
[V:2] G2G | 
[V:3] DB,D | 
[V:4] B,,G,,B,, | 
[V:1] f/e/e2 | 
[V:2] GG2 | 
[V:3] D/C/C2 | 
[V:4] C,C,2 | 
[V:1] d2d | 
[V:2] A2A | 
[V:3] C2C | 
[V:4] F,2F, | 
[V:1] d/_e/e2 | 
[V:2] AA2 | 
[V:3] CC2 | 
[V:4] ^F,F,2 | 
[V:1] =e2e | 
[V:2] _B2B | 
[V:3] C2C | 
[V:4] G,2G, | 
[V:1] e/f/f2 | 
[V:2] AA2 | 
[V:3] CC2 | 
[V:4] A,2A, | 
[V:1] ^fff | 
[V:2] ccc | 
[V:3] CCD | 
[V:4] _A,A,A, | 
[V:1] g=fe | 
[V:2] =B2c | 
[V:3] D2C | 
[V:4] G,2=A, | 
[V:1] fed | 
[V:2] AG2 | 
[V:3] C2B, | 
[V:4] F,G,G,, | 
[V:1] ccc | 
[V:2] Azz | 
[V:3] C2z | 
[V:4] C,zz | 
[V:1] d2g | 
[V:2] G2G | 
[V:3] D2D | 
[V:4] B,2B, | 
[V:1] eec | 
[V:2] GGG | 
[V:3] CCE | 
[V:4] CC,C | 
[V:1] B2d | 
[V:2] G2F | 
[V:3] D2B, | 
[V:4] G,2G,, | 
[V:1] c2z |]  
[V:2] E2z |]  
[V:3] C2z |]  
[V:4] C,3 |]  

